assets/icons/icon_sticks_6.svg

<svg width="30" height="30" viewBox="0 0 30 30" fill="none" xmlns="http://www.w3.org/2000/svg">
<path d="M9.34116 4.62699C8.28889 4.63194 7.26165 4.94728 6.38896 5.53324C5.51627 6.1192 4.8372 6.94954 4.43738 7.91958C4.03757 8.88961 3.93489 9.95591 4.14231 10.984C4.34973 12.0121 4.85795 12.956 5.6029 13.6967C6.34785 14.4373 7.29617 14.9416 8.32829 15.1459C9.36042 15.3502 10.4301 15.2453 11.4025 14.8446C12.375 14.4439 13.2066 13.7652 13.7925 12.8941C14.3784 12.023 14.6924 10.9985 14.6949 9.94987C14.6957 9.24957 14.5577 8.556 14.2888 7.90901C14.0199 7.26201 13.6254 6.67434 13.1279 6.17973C12.6304 5.68513 12.0398 5.29334 11.39 5.02687C10.7401 4.76041 10.0439 4.62451 9.34116 4.62699ZM9.34116 5.41696C10.2383 5.41448 11.116 5.67717 11.8633 6.17181C12.6106 6.66646 13.1939 7.37083 13.5395 8.19587C13.8851 9.02091 13.9775 9.92955 13.8049 10.8069C13.6323 11.6842 13.2026 12.4909 12.57 13.1248C11.9374 13.7588 11.1304 14.1915 10.251 14.3684C9.37158 14.5452 8.45932 14.4582 7.62955 14.1184C6.79978 13.7785 6.08976 13.2011 5.58928 12.4591C5.0888 11.7171 4.82034 10.8439 4.81785 9.94987C4.81702 9.35707 4.93337 8.76991 5.16024 8.22192C5.38711 7.67393 5.72006 7.17583 6.14009 6.75608C6.56012 6.33632 7.05899 6.00312 7.60823 5.77551C8.15747 5.54789 8.74632 5.43032 9.34116 5.42949" fill="white"/>
<path d="M11.694 25.21C11.712 25.4147 11.8063 25.6051 11.9583 25.7439C12.1103 25.8827 12.3089 25.9597 12.515 25.9597C12.7211 25.9597 12.9198 25.8827 13.0718 25.7439C13.2237 25.6051 13.318 25.4147 13.336 25.21V16.3135L11.694 17.9122V25.21Z" fill="white"/>
<path d="M14.8647 25.21C14.8827 25.4146 14.977 25.6051 15.129 25.7438C15.281 25.8826 15.4796 25.9596 15.6857 25.9596C15.8919 25.9596 16.0905 25.8826 16.2425 25.7438C16.3944 25.6051 16.4887 25.4146 16.5067 25.21V13.2288L14.8647 14.8275V25.21Z" fill="white"/>
<path d="M5.3526 25.2101C5.35424 25.3155 5.3767 25.4195 5.41869 25.5163C5.46068 25.613 5.52138 25.7006 5.59732 25.7739C5.67327 25.8473 5.76297 25.905 5.86131 25.9438C5.95965 25.9826 6.06469 26.0017 6.17044 26.0001C6.38462 26.0034 6.59145 25.9223 6.74583 25.7743C6.90021 25.6263 6.98962 25.4235 6.99458 25.2101V22.4766L5.3526 24.0628V25.2101Z" fill="white"/>
<path d="M8.52332 25.2101C8.54131 25.4147 8.63559 25.6052 8.78757 25.744C8.93955 25.8828 9.13818 25.9597 9.3443 25.9597C9.55043 25.9597 9.74906 25.8828 9.90104 25.744C10.053 25.6052 10.1473 25.4147 10.1653 25.2101V19.3982L8.52332 20.9907V25.2101Z" fill="white"/>
<path d="M24.358 5.59875V25.21C24.376 25.4147 24.4703 25.6052 24.6223 25.7439C24.7743 25.8827 24.9729 25.9597 25.179 25.9597C25.3851 25.9597 25.5838 25.8827 25.7358 25.7439C25.8877 25.6052 25.982 25.4147 26 25.21V4L24.358 5.59875Z" fill="white"/>
<path d="M18.0355 25.2099C18.0535 25.4145 18.1477 25.605 18.2997 25.7437C18.4517 25.8825 18.6503 25.9595 18.8565 25.9595C19.0626 25.9595 19.2612 25.8825 19.4132 25.7437C19.5652 25.605 19.6594 25.4145 19.6774 25.2099V10.1628L18.0355 11.7553V25.2099Z" fill="white"/>
<path d="M21.2062 25.2101C21.2242 25.4148 21.3185 25.6052 21.4704 25.744C21.6224 25.8828 21.821 25.9597 22.0272 25.9597C22.2333 25.9597 22.4319 25.8828 22.5839 25.744C22.7359 25.6052 22.8302 25.4148 22.8482 25.2101V7.06592L21.2062 8.66466V25.2101Z" fill="white"/>
<path d="M9.18442 10.0081C9.01793 10.0064 8.8523 10.0318 8.69433 10.0835C8.56982 10.1278 8.4583 10.2014 8.36956 10.2979V10.6283C8.34933 10.9621 8.42286 11.2949 8.58213 11.5904C8.63799 11.6956 8.72315 11.7831 8.82769 11.8426C8.93224 11.9021 9.05185 11.9312 9.17262 11.9266C9.27409 11.9256 9.37358 11.8989 9.46149 11.8492C9.54941 11.7994 9.62278 11.7283 9.67452 11.6426C9.80749 11.4409 9.8754 11.2046 9.86938 10.9645C9.88446 10.7169 9.81823 10.4711 9.68043 10.2632C9.62749 10.1842 9.5557 10.1192 9.47131 10.0738C9.38692 10.0283 9.29249 10.0038 9.19623 10.0023M9.46786 7.00004C9.66621 6.99902 9.86412 7.01845 10.0583 7.058C10.2597 7.10252 10.4571 7.1626 10.6488 7.23767L10.4244 8.22298C10.2355 8.16502 10.0701 8.12445 9.92843 8.09547C9.76686 8.06585 9.60267 8.05226 9.43833 8.0549C9.29091 8.04895 9.14404 8.07614 9.00896 8.1344C8.87388 8.19266 8.75414 8.28045 8.6589 8.39107C8.44532 8.67244 8.34446 9.02102 8.37547 9.37058C8.50807 9.23269 8.67193 9.12745 8.85376 9.0634C9.08184 8.98904 9.32262 8.9595 9.56233 8.97646C9.79951 8.9686 10.0351 9.01722 10.249 9.11815C10.4629 9.21908 10.6487 9.36932 10.7905 9.55605C11.099 9.97028 11.2551 10.475 11.2334 10.9877C11.24 11.2532 11.191 11.5173 11.0894 11.7636C10.9878 12.0098 10.8359 12.233 10.6429 12.4193C10.4484 12.6106 10.2161 12.7608 9.96011 12.8604C9.70417 12.9601 9.43012 13.0072 9.1549 12.9988C8.86422 13.0085 8.57479 12.9572 8.30596 12.8482C8.03712 12.7393 7.79509 12.5752 7.59603 12.3671C7.17426 11.8861 6.96217 11.2615 7.00555 10.6283V9.46911C6.98597 9.13806 7.03616 8.8066 7.153 8.49545C7.26984 8.1843 7.45081 7.90016 7.68461 7.66078C7.92011 7.44069 8.19828 7.2693 8.50259 7.15679C8.80689 7.04428 9.13113 6.99294 9.45605 7.00583" fill="white"/>
</svg>

<svg xmlns="http://www.w3.org/2000/svg" width="30" height="30" fill="none" viewBox="0 0 30 30"><path fill="#fff" d="M9.341 4.627a5.34 5.34 0 0 0-2.952.906A5.3 5.3 0 0 0 4.437 7.92a5.29 5.29 0 0 0 1.166 5.777 5.335 5.335 0 0 0 5.8 1.148 5.32 5.32 0 0 0 2.39-1.95c.585-.872.9-1.896.902-2.945a5.3 5.3 0 0 0-1.567-3.77A5.34 5.34 0 0 0 9.34 4.627m0 .79a4.55 4.55 0 0 1 2.522.755 4.52 4.52 0 0 1 1.677 2.024 4.51 4.51 0 0 1-.97 4.929 4.54 4.54 0 0 1-4.94.993 4.53 4.53 0 0 1-2.04-1.659 4.5 4.5 0 0 1 .55-5.703A4.53 4.53 0 0 1 9.341 5.43M11.694 25.21a.82.82 0 0 0 .821.75.826.826 0 0 0 .821-.75v-8.896l-1.642 1.598zM14.865 25.21a.82.82 0 0 0 .82.75.826.826 0 0 0 .822-.75V13.229l-1.642 1.599zM5.353 25.21a.8.8 0 0 0 .817.79.813.813 0 0 0 .825-.79v-2.733l-1.642 1.586zM8.523 25.21a.82.82 0 0 0 .821.75.826.826 0 0 0 .821-.75v-5.812l-1.642 1.593zM24.358 5.599V25.21a.82.82 0 0 0 .821.75.826.826 0 0 0 .821-.75V4zM18.036 25.21a.82.82 0 0 0 .82.75.826.826 0 0 0 .821-.75V10.163l-1.642 1.592zM21.206 25.21a.82.82 0 0 0 .821.75.825.825 0 0 0 .821-.75V7.066l-1.642 1.599z"/><path fill="#fff" d="M9.184 10.008a1.5 1.5 0 0 0-.49.076.8.8 0 0 0-.324.214v.33c-.02.334.053.667.212.962a.648.648 0 0 0 .59.336.6.6 0 0 0 .503-.283c.132-.202.2-.438.194-.679a1.14 1.14 0 0 0-.189-.7.59.59 0 0 0-.484-.262M9.468 7q.298-.002.59.058.304.067.59.18l-.224.985a5 5 0 0 0-.496-.128 2.5 2.5 0 0 0-.49-.04.98.98 0 0 0-.78.336c-.213.281-.314.63-.283.98a1.2 1.2 0 0 1 .479-.308c.228-.074.469-.104.708-.087.238-.007.473.041.687.142s.4.251.541.438c.309.414.465.919.443 1.432a1.9 1.9 0 0 1-.59 1.431 2.047 2.047 0 0 1-1.488.58 2.08 2.08 0 0 1-1.559-.632 2.4 2.4 0 0 1-.59-1.739V9.47a2.4 2.4 0 0 1 .147-.974c.117-.31.298-.595.532-.834a2.468 2.468 0 0 1 1.771-.655"/></svg>
